media/squiggly.svg

<?xml version="1.0" encoding="UTF-8"?>
<svg width="71px" height="6px" viewBox="0 0 71 6" version="1.1" xmlns="http://www.w3.org/2000/svg" xmlns:xlink="http://www.w3.org/1999/xlink">
    <g id="Page-1" stroke="none" stroke-width="1" fill="none" fill-rule="evenodd">
        <g id="Tea-Screen" fill="currentColor">
            <path d="M71,2.89472868 C70.5645281,2.89558643 70.2445281,2.88637745 70.04,2.86710176 C69.3180461,2.78649105 68.6384279,2.6425462 68.04,2.44349673 C67.1369476,2.14963446 66.2783769,1.82896633 65.47,1.48362577 C64.6508731,1.13884917 63.7485739,0.836532912 62.78,0.582338478 C61.8466559,0.342568363 60.8336709,0.172143472 59.78,0.0776175967 C58.3151453,-0.0787014299 56.7748959,0.0026762344 55.43,0.307445855 C54.0042399,0.666119122 52.7365914,1.13962154 51.69,1.70444115 C50.9853226,2.044189 50.1968853,2.34657562 49.34,2.60572844 C48.575136,2.86594446 47.5980607,2.96452194 46.66,2.87611463 C45.9380461,2.79550392 45.2584279,2.65155907 44.66,2.4525096 C43.766632,2.15526616 42.918095,1.83159143 42.12,1.48362577 C41.3008731,1.13884917 40.3985739,0.836532912 39.43,0.582338478 C38.4966559,0.342568363 37.4836709,0.172143472 36.43,0.0776175967 C34.9651453,-0.0787014299 33.4248959,0.0026762344 32.08,0.307445855 C30.6542399,0.666119122 29.3865914,1.13962154 28.34,1.70444115 C27.6353829,2.04421748 26.846938,2.34660701 25.99,2.60572844 C25.225136,2.86594446 24.2480607,2.96452194 23.31,2.87611463 C22.5880461,2.79550392 21.9084279,2.65155907 21.31,2.4525096 C20.416632,2.15526616 19.568095,1.83159143 18.77,1.48362577 C17.9508731,1.13884917 17.0485739,0.836532912 16.08,0.582338478 C15.1466559,0.342568363 14.1336709,0.172143472 13.08,0.0776175967 C11.625781,-0.0768108929 10.0974963,0.00290111817 8.76,0.302939419 C7.32708569,0.660701723 6.0525219,1.13425481 5,1.69993472 C4.29538295,2.03971104 3.506938,2.34210058 2.65,2.60122201 C2.14199421,2.76897188 1.25866088,2.86680743 0,2.89472868 L1.39271815e-14,5.97203646 C0.573699033,6.00932118 1.15630097,6.00932118 1.73,5.97203646 C2.47532466,5.91347999 3.19465525,5.80086041 3.86,5.63856017 C4.52338085,5.4751012 5.14393514,5.2785912 5.71,5.05272343 C6.27279369,4.83196837 6.79453647,4.59081958 7.27,4.3316936 C7.96658419,3.96324612 8.78241275,3.64421277 9.69,3.38534195 C10.4725913,3.14722288 11.4363103,3.0626413 12.36,3.15100725 C13.2646274,3.22870847 14.1293178,3.38151913 14.91,3.6016509 C15.7884577,3.86625683 16.6088468,4.1680553 17.36,4.50293818 C18.1156368,4.84285822 18.9504702,5.14503681 19.85,5.40422547 C20.7005935,5.63433108 21.6350996,5.7945433 22.61,5.8774013 C22.86,5.89993348 23.1,5.91795923 23.35,5.9269721 C23.923699,5.96425681 24.506301,5.96425681 25.08,5.9269721 C25.8253247,5.86841563 26.5446552,5.75579605 27.21,5.5934958 C27.8733808,5.43003683 28.4939351,5.23352683 29.06,5.00765907 C29.6227937,4.786904 30.1445365,4.54575521 30.62,4.28662923 C31.3087831,3.92915486 32.1107362,3.61938767 33,3.3673162 C33.7990008,3.13046632 34.7790865,3.05223706 35.71,3.15100725 C36.6146274,3.22870847 37.4793178,3.38151913 38.26,3.6016509 C39.1384577,3.86625683 39.9588468,4.1680553 40.71,4.50293818 C41.4656368,4.84285822 42.3004702,5.14503681 43.2,5.40422547 C44.0557892,5.65213298 45.004598,5.827744 46,5.92246566 C46.25,5.94499785 46.49,5.96302359 46.74,5.97203646 C47.313699,6.00932118 47.896301,6.00932118 48.47,5.97203646 C49.2153247,5.91347999 49.9346552,5.80086041 50.6,5.63856017 C51.2633808,5.4751012 51.8839351,5.2785912 52.45,5.05272343 C53.011334,4.82457867 53.5297728,4.57587455 54,4.30916142 C54.6965842,3.94071394 55.5124128,3.62168058 56.42,3.36280976 C57.2018861,3.13612232 58.1525478,3.05985242 59.06,3.15100725 C59.9646274,3.22870847 60.8293178,3.38151913 61.61,3.6016509 C62.4884577,3.86625683 63.3088468,4.1680553 64.06,4.50293818 C64.8156368,4.84285822 65.6504702,5.14503681 66.55,5.40422547 C67.4005935,5.63433108 68.3350996,5.7945433 69.31,5.8774013 C69.56,5.89993348 69.8,5.91795923 70.05,5.9269721 C70.2706348,5.94145758 70.5873014,5.95065003 71,5.95454946 L71,2.89472868 Z" id="Path"></path>
        </g>
    </g>
</svg>

<svg width="71" height="6" xmlns="http://www.w3.org/2000/svg"><path d="M71 2.9a9.86 9.86 0 0 1-2.96-.45c-.9-.3-1.76-.62-2.57-.97a18.92 18.92 0 0 0-5.69-1.4 13.63 13.63 0 0 0-8.09 1.62c-.7.34-1.5.65-2.35.9a6.7 6.7 0 0 1-2.68.28 9.86 9.86 0 0 1-2-.43c-.9-.3-1.74-.62-2.54-.97a18.92 18.92 0 0 0-5.69-1.4 13.63 13.63 0 0 0-8.09 1.62c-.7.34-1.5.65-2.35.9a6.7 6.7 0 0 1-2.68.28 9.86 9.86 0 0 1-2-.43c-.9-.3-1.74-.62-2.54-.97a18.92 18.92 0 0 0-5.69-1.4A13.65 13.65 0 0 0 5 1.7c-.7.34-1.5.64-2.35.9-.5.17-1.4.27-2.65.3v3.07a13.4 13.4 0 0 0 3.86-.33 14.13 14.13 0 0 0 3.41-1.3c.7-.38 1.51-.7 2.42-.95a7.15 7.15 0 0 1 2.67-.24c.9.08 1.77.23 2.55.45.88.27 1.7.57 2.45.9a15.75 15.75 0 0 0 5.99 1.42 13.4 13.4 0 0 0 3.86-.33 14.13 14.13 0 0 0 3.41-1.3c.69-.36 1.5-.67 2.38-.92a7.2 7.2 0 0 1 2.71-.22c.9.08 1.77.23 2.55.45.88.27 1.7.57 2.45.9.76.34 1.59.65 2.49.9a15.37 15.37 0 0 0 3.54.57 13.4 13.4 0 0 0 3.86-.33A14.13 14.13 0 0 0 54 4.3c.7-.37 1.51-.69 2.42-.95a7.2 7.2 0 0 1 2.64-.2c.9.07 1.77.22 2.55.44.88.27 1.7.57 2.45.9a15.75 15.75 0 0 0 5.99 1.42c.22.02.54.03.95.03V2.9z" fill="currentColor" fill-rule="evenodd"/></svg>
